X:343
T: Hey Jenny Come Down to Jock
N: O'Farrell's Pocket Companion v.4 (Sky ed. p.149)
N: "Scotch"
M: 6/8
L: 1/8
Q: 180
K: Em
D/E/| GAG ABd| e>dB A2 B/A/| GAG ABd| ede E2 :|
e/f/| gfe a>gf| g>fe def| g>ab dB>G| A2B E2 :|
D/E/| G/D/G/B/A/G/ A/G/A/B/d/B/|
e/d/g/e/d/B/ A2 B/A/| G/D/G/B/A/G/ ABd| ede E2:|
e/f/| g/d/g/b/a/g/ f/d/f/a/g/f/| g/e/a/f/g/e/ d>ef|
g>ab dB>G | A2B E2 :|
